X:1
T:Gloria (Opening)
C:Antonio Vivaldi
M:4/4
L:1/4
Q:1/4=120
K:D
% Gloria in excelsis Deo — RV 589 opening choral theme
% Soprano/trumpet melody, D major, triumphant fanfare character
|D2 F A|d3 c|B A G A|B4|
|A B c d|d c B A|G A B c|d2 A2|
|F G A B|A2 D2|]
